icons/home-heart-line.svg

<svg viewBox="0 0 24 24" fill="currentColor" xmlns="http://www.w3.org/2000/svg">
    <path d="M20 20C20 20.5523 19.5523 21 19 21H5C4.44772 21 4 20.5523 4 20V11H1L11.3273 1.6115C11.7087 1.26475 12.2913 1.26475 12.6727 1.6115L23 11H20V20ZM18 19V9.15745L12 3.7029L6 9.15745V19H18ZM12 17L8.64124 13.6412C7.76256 12.7625 7.76256 11.3379 8.64124 10.4592C9.51992 9.58056 10.9445 9.58056 11.8232 10.4592L12 10.636L12.1768 10.4592C13.0555 9.58056 14.4801 9.58056 15.3588 10.4592C16.2374 11.3379 16.2374 12.7625 15.3588 13.6412L12 17Z"/>
</svg>

<svg xmlns="http://www.w3.org/2000/svg" viewBox="0 0 24 24">
    <g>
        <path fill="none" d="M0 0h24v24H0z"/>
        <path fill-rule="nonzero" d="M20 20a1 1 0 0 1-1 1H5a1 1 0 0 1-1-1v-9H1l10.327-9.388a1 1 0 0 1 1.346 0L23 11h-3v9zm-2-1V9.157l-6-5.454-6 5.454V19h12zm-6-2l-3.359-3.359a2.25 2.25 0 1 1 3.182-3.182l.177.177.177-.177a2.25 2.25 0 1 1 3.182 3.182L12 17z"/>
    </g>
</svg>
